X: 1322
T: An Old Woman's Money
R: jig
M: 6/8
K: Gmajor
|:cAG A2G|F2D D3|GAG GAB|ded cAd|
cAG A2G|F2D D3|F3 FGA|c3 cAd:|
|:BGG DGG|BGG DGG|BGG BAG|ded cAd|
BGG DGG|BGG DGG|cAG FGA|c3 cAd:|

